; G-Code generated by Simplify3D(R) Version 4.0.0
; Aug 16, 2017 at 1:41:11 PM
; Settings Summary
;   processName,Process1
;   applyToModels,MotorShaft
;   profileName,Belfry (modified)
;   profileVersion,2017-06-19 17:47:16
;   baseProfile,Default
;   printMaterial,PLA+
;   printQuality,Medium
;   printExtruders,
;   extruderName,Extruder 1
;   extruderToolheadNumber,0
;   extruderDiameter,0.4
;   extruderAutoWidth,1
;   extruderWidth,0.48
;   extrusionMultiplier,1
;   extruderUseRetract,1
;   extruderRetractionDistance,4
;   extruderExtraRestartDistance,0
;   extruderRetractionZLift,0
;   extruderRetractionSpeed,3600
;   extruderUseCoasting,0
;   extruderCoastingDistance,0.2
;   extruderUseWipe,1
;   extruderWipeDistance,2
;   primaryExtruder,0
;   layerHeight,0.3
;   topSolidLayers,3
;   bottomSolidLayers,3
;   perimeterOutlines,3
;   printPerimetersInsideOut,1
;   startPointOption,2
;   startPointOriginX,0
;   startPointOriginY,0
;   sequentialIslands,0
;   spiralVaseMode,0
;   firstLayerHeightPercentage,100
;   firstLayerWidthPercentage,100
;   firstLayerUnderspeed,0.5
;   useRaft,0
;   raftExtruder,0
;   raftTopLayers,3
;   raftBaseLayers,2
;   raftOffset,3
;   raftSeparationDistance,0.14
;   raftTopInfill,100
;   aboveRaftSpeedMultiplier,0.3
;   useSkirt,1
;   skirtExtruder,0
;   skirtLayers,1
;   skirtOutlines,1
;   skirtOffset,4
;   usePrimePillar,0
;   primePillarExtruder,999
;   primePillarWidth,12
;   primePillarLocation,7
;   primePillarSpeedMultiplier,1
;   useOozeShield,0
;   oozeShieldExtruder,999
;   oozeShieldOffset,2
;   oozeShieldOutlines,1
;   oozeShieldSidewallShape,1
;   oozeShieldSidewallAngle,30
;   oozeShieldSpeedMultiplier,1
;   infillExtruder,0
;   internalInfillPattern,Rectilinear
;   externalInfillPattern,Rectilinear
;   infillPercentage,75
;   outlineOverlapPercentage,25
;   infillExtrusionWidthPercentage,100
;   minInfillLength,5
;   infillLayerInterval,1
;   internalInfillAngles,45,-45
;   overlapInternalInfillAngles,0
;   externalInfillAngles,45,-45
;   generateSupport,0
;   supportExtruder,0
;   supportInfillPercentage,30
;   supportExtraInflation,0
;   supportBaseLayers,0
;   denseSupportExtruder,0
;   denseSupportLayers,0
;   denseSupportInfillPercentage,70
;   supportLayerInterval,1
;   supportHorizontalPartOffset,0.3
;   supportUpperSeparationLayers,1
;   supportLowerSeparationLayers,1
;   supportType,0
;   supportGridSpacing,4
;   maxOverhangAngle,45
;   supportAngles,0
;   temperatureName,Extruder 1,Heated Bed
;   temperatureNumber,0,0
;   temperatureSetpointCount,1,3
;   temperatureSetpointLayers,1,1,2,3
;   temperatureSetpointTemperatures,225,70,65,60
;   temperatureStabilizeAtStartup,1,1
;   temperatureHeatedBed,0,1
;   temperatureRelayBetweenLayers,0,0
;   temperatureRelayBetweenLoops,0,0
;   fanLayers,1,2,3
;   fanSpeeds,0,50,100
;   blipFanToFullPower,0
;   adjustSpeedForCooling,1
;   minSpeedLayerTime,15
;   minCoolingSpeedSlowdown,20
;   increaseFanForCooling,0
;   minFanLayerTime,45
;   maxCoolingFanSpeed,100
;   increaseFanForBridging,0
;   bridgingFanSpeed,100
;   use5D,1
;   relativeEdistances,0
;   allowEaxisZeroing,1
;   independentExtruderAxes,0
;   includeM10123,0
;   stickySupport,1
;   applyToolheadOffsets,0
;   gcodeXoffset,0
;   gcodeYoffset,0
;   gcodeZoffset,0
;   overrideMachineDefinition,1
;   machineTypeOverride,0
;   strokeXoverride,300
;   strokeYoverride,200
;   strokeZoverride,350
;   originOffsetXoverride,0
;   originOffsetYoverride,0
;   originOffsetZoverride,0
;   homeXdirOverride,-1
;   homeYdirOverride,-1
;   homeZdirOverride,-1
;   flipXoverride,1
;   flipYoverride,-1
;   flipZoverride,1
;   toolheadOffsets,0,0|0,0|0,0|0,0|0,0|0,0
;   overrideFirmwareConfiguration,1
;   firmwareTypeOverride,RepRap (Marlin/Repetier/Sprinter)
;   GPXconfigOverride,r2
;   baudRateOverride,115200
;   overridePrinterModels,0
;   printerModelsOverride
;   startingGcode,G28 ; home all axes
;   layerChangeGcode,
;   retractionGcode,
;   toolChangeGcode,
;   endingGcode,G91 ;relative positioning,G1 Z+0.5 ;move Z up a bit,G28 X0 Y0 ;move X/Y to min endstops,M104 S0 ; turn off extruder,M140 S0 ; turn off bed,M84 ; disable motors
;   exportFileFormat,gcode
;   celebration,0
;   celebrationSong,Random Song
;   postProcessing,
;   defaultSpeed,3600
;   outlineUnderspeed,0.5
;   solidInfillUnderspeed,0.8
;   supportUnderspeed,0.8
;   rapidXYspeed,4200
;   rapidZspeed,1002
;   minBridgingArea,50
;   bridgingExtraInflation,0
;   bridgingExtrusionMultiplier,1
;   bridgingSpeedMultiplier,1
;   useFixedBridgingAngle,0
;   fixedBridgingAngle,0
;   applyBridgingToPerimeters,0
;   filamentDiameters,1.7|1.7|1.7|1.7|1.7|1.7
;   filamentPricesPerKg,30|30|30|30|30|30
;   filamentDensities,1.25|1.25|1.25|1.25|1.25|1.25
;   useMinPrintHeight,0
;   minPrintHeight,0
;   useMaxPrintHeight,0
;   maxPrintHeight,0
;   useDiaphragm,0
;   diaphragmLayerInterval,20
;   robustSlicing,1
;   mergeAllIntoSolid,0
;   onlyRetractWhenCrossingOutline,1
;   retractBetweenLayers,1
;   useRetractionMinTravel,0
;   retractionMinTravel,3
;   retractWhileWiping,0
;   onlyWipeOutlines,1
;   avoidCrossingOutline,0
;   maxMovementDetourFactor,3
;   toolChangeRetractionDistance,12
;   toolChangeExtraRestartDistance,-0.5
;   toolChangeRetractionSpeed,600
;   externalThinWallType,0
;   internalThinWallType,2
;   thinWallAllowedOverlapPercentage,10
;   singleExtrusionMinLength,1
;   singleExtrusionMinPrintingWidthPercentage,50
;   singleExtrusionMaxPrintingWidthPercentage,200
;   singleExtrusionEndpointExtension,0.2
;   horizontalSizeCompensation,0
G90
M82
M106 S0
M140 S70
M190 S70
M104 S225 T0
M109 S225 T0
G28 ; home all axes
G92 E0
G1 E-4.0000 F3600
G1 Z0.300 F1002
; process Process1
; layer 1, Z = 0.300
T0
; tool H0.300 W0.480
; skirt
G1 X140.843 Y94.383 F4200
G1 E0.0000 F1080
G92 E0
G1 X142.204 Y92.608 E0.1419 F1167
G1 X142.215 Y92.597 E0.1429
G1 X142.597 Y92.215 E0.1772
G1 X142.608 Y92.204 E0.1782
G1 X144.383 Y90.843 E0.3201
G1 X144.396 Y90.834 E0.3211
G1 X144.864 Y90.564 E0.3553
G1 X144.878 Y90.557 E0.3563
G1 X146.945 Y89.701 E0.4983
G1 X146.959 Y89.696 E0.4992
G1 X147.481 Y89.556 E0.5335
G1 X147.497 Y89.553 E0.5345
G1 X149.714 Y89.261 E0.6764
G1 X149.730 Y89.260 E0.6774
G1 X150.270 Y89.260 E0.7117
G1 X150.286 Y89.261 E0.7127
G1 X152.503 Y89.553 E0.8546
G1 X152.519 Y89.556 E0.8556
G1 X153.041 Y89.696 E0.8899
G1 X153.055 Y89.701 E0.8908
G1 X155.122 Y90.557 E1.0328
G1 X155.136 Y90.564 E1.0338
G1 X155.604 Y90.834 E1.0680
G1 X155.617 Y90.843 E1.0690
G1 X157.392 Y92.204 E1.2109
G1 X157.403 Y92.215 E1.2119
G1 X157.785 Y92.597 E1.2462
G1 X157.796 Y92.608 E1.2472
G1 X159.157 Y94.383 E1.3891
G1 X159.166 Y94.396 E1.3901
G1 X159.436 Y94.864 E1.4244
G1 X159.443 Y94.878 E1.4254
G1 X160.299 Y96.945 E1.5673
G1 X160.304 Y96.959 E1.5683
G1 X160.444 Y97.481 E1.6025
G1 X160.447 Y97.496 E1.6035
G1 X160.739 Y99.714 E1.7454
G1 X160.740 Y99.730 E1.7464
G1 X160.740 Y100.270 E1.7807
G1 X160.739 Y100.286 E1.7817
G1 X160.447 Y102.503 E1.9236
G1 X160.444 Y102.519 E1.9246
G1 X160.304 Y103.041 E1.9589
G1 X160.299 Y103.055 E1.9599
G1 X159.443 Y105.122 E2.1018
G1 X159.436 Y105.136 E2.1028
G1 X159.166 Y105.604 E2.1370
G1 X159.157 Y105.617 E2.1380
G1 X157.796 Y107.392 E2.2799
G1 X157.785 Y107.403 E2.2809
G1 X157.403 Y107.785 E2.3152
G1 X157.392 Y107.796 E2.3162
G1 X155.617 Y109.157 E2.4581
G1 X155.604 Y109.166 E2.4591
G1 X155.136 Y109.436 E2.4934
G1 X155.122 Y109.443 E2.4944
G1 X153.055 Y110.299 E2.6363
G1 X153.041 Y110.304 E2.6373
G1 X152.519 Y110.444 E2.6715
G1 X152.503 Y110.447 E2.6725
G1 X150.286 Y110.739 E2.8144
G1 X150.270 Y110.740 E2.8154
G1 X149.730 Y110.740 E2.8497
G1 X149.714 Y110.739 E2.8507
G1 X147.496 Y110.447 E2.9926
G1 X147.481 Y110.444 E2.9936
G1 X146.959 Y110.304 E3.0279
G1 X146.945 Y110.299 E3.0289
G1 X144.878 Y109.443 E3.1708
G1 X144.864 Y109.436 E3.1718
G1 X144.396 Y109.166 E3.2060
G1 X144.383 Y109.157 E3.2070
G1 X142.608 Y107.796 E3.3490
G1 X142.597 Y107.785 E3.3500
G1 X142.215 Y107.403 E3.3842
G1 X142.204 Y107.392 E3.3852
G1 X140.843 Y105.617 E3.5271
G1 X140.834 Y105.604 E3.5281
G1 X140.564 Y105.136 E3.5624
G1 X140.557 Y105.122 E3.5634
G1 X139.701 Y103.055 E3.7053
G1 X139.696 Y103.041 E3.7063
G1 X139.556 Y102.519 E3.7406
G1 X139.553 Y102.503 E3.7416
G1 X139.261 Y100.286 E3.8835
G1 X139.260 Y100.270 E3.8845
G1 X139.260 Y99.730 E3.9187
G1 X139.261 Y99.714 E3.9197
G1 X139.553 Y97.497 E4.0616
G1 X139.556 Y97.481 E4.0626
G1 X139.696 Y96.959 E4.0969
G1 X139.701 Y96.945 E4.0979
G1 X140.557 Y94.878 E4.2398
G1 X140.564 Y94.864 E4.2408
G1 X140.834 Y94.396 E4.2751
G1 X140.843 Y94.383 E4.2761
G92 E0
G1 E-4.0000 F3600
; inner perimeter
G1 X146.884 Y103.850 F4200
G1 E0.0000 F3600
G92 E0
G1 X153.116 Y103.850 E0.3954 F875
G1 X153.215 Y104.143 E0.4150
G1 X152.645 Y104.581 E0.4606
G1 X151.369 Y105.109 E0.5482
G1 X150.000 Y105.290 E0.6358
G1 X148.631 Y105.109 E0.7234
G1 X147.355 Y104.581 E0.8110
G1 X146.785 Y104.143 E0.8567
G1 X146.884 Y103.850 E0.8763
G1 X145.917 Y104.083 F4200
G92 E0
G1 X145.000 Y102.887 E0.0956 F875
G1 X144.423 Y101.494 E0.1912
G1 X144.226 Y100.000 E0.2869
G1 X144.423 Y98.506 E0.3825
G1 X145.000 Y97.113 E0.4781
G1 X145.917 Y95.917 E0.5737
G1 X147.113 Y95.000 E0.6694
G1 X148.506 Y94.423 E0.7650
G1 X150.000 Y94.226 E0.8606
G1 X151.494 Y94.423 E0.9562
G1 X152.887 Y95.000 E1.0519
G1 X154.083 Y95.917 E1.1475
G1 X155.000 Y97.113 E1.2431
G1 X155.577 Y98.506 E1.3387
G1 X155.774 Y100.000 E1.4343
G1 X155.577 Y101.494 E1.5300
G1 X155.000 Y102.887 E1.6256
G1 X154.083 Y104.083 E1.7212
G1 X152.887 Y105.000 E1.8168
G1 X151.494 Y105.577 E1.9125
G1 X150.000 Y105.774 E2.0081
G1 X148.506 Y105.577 E2.1037
G1 X147.113 Y105.000 E2.1993
G1 X145.917 Y104.083 E2.2950
; outer perimeter
G1 X145.575 Y104.425 F4200
G92 E0
G1 X144.580 Y103.129 E0.1036 F584
G1 X143.955 Y101.620 E0.2073
G1 X143.742 Y100.000 E0.3109
G1 X143.955 Y98.380 E0.4146
G1 X144.580 Y96.871 E0.5182
G1 X145.575 Y95.575 E0.6218
G1 X146.871 Y94.580 E0.7255
G1 X148.380 Y93.955 E0.8291
G1 X150.000 Y93.742 E0.9328
G1 X151.620 Y93.955 E1.0364
G1 X153.129 Y94.580 E1.1401
G1 X154.425 Y95.575 E1.2437
G1 X155.420 Y96.871 E1.3473
G1 X156.045 Y98.380 E1.4510
G1 X156.258 Y100.000 E1.5546
G1 X156.045 Y101.620 E1.6583
G1 X155.420 Y103.129 E1.7619
G1 X154.425 Y104.425 E1.8655
G1 X153.129 Y105.420 E1.9692
G1 X151.620 Y106.045 E2.0728
G1 X150.000 Y106.258 E2.1765
G1 X148.380 Y106.045 E2.2801
G1 X146.871 Y105.420 E2.3837
G1 X145.575 Y104.425 E2.4874
G1 X144.580 Y103.129 F3600
G1 X144.440 Y102.790 F3600
; inner perimeter
G1 X145.771 Y102.442 F4200
G92 E0
G1 X146.483 Y103.370 E0.0742 F875
G1 X153.517 Y103.370 E0.5205
G1 X154.229 Y102.442 E0.5947
G1 X154.717 Y101.264 E0.6756
G1 X154.884 Y100.000 E0.7565
G1 X154.717 Y98.736 E0.8373
G1 X154.229 Y97.558 E0.9182
G1 X153.453 Y96.547 E0.9991
G1 X152.442 Y95.771 E1.0800
G1 X151.264 Y95.283 E1.1609
G1 X150.000 Y95.116 E1.2417
G1 X148.736 Y95.283 E1.3226
G1 X147.558 Y95.771 E1.4035
G1 X146.547 Y96.547 E1.4844
G1 X145.771 Y97.558 E1.5653
G1 X145.283 Y98.736 E1.6461
G1 X145.116 Y100.000 E1.7270
G1 X145.283 Y101.264 E1.8079
G1 X145.771 Y102.442 E1.8888
; outer perimeter
G1 X146.190 Y102.200 F4200
G92 E0
G1 X146.720 Y102.890 E0.0552 F584
G1 X153.280 Y102.890 E0.4714
G1 X153.810 Y102.200 E0.5266
G1 X154.250 Y101.139 E0.5995
G1 X154.399 Y100.000 E0.6723
G1 X154.250 Y98.861 E0.7452
G1 X153.810 Y97.800 E0.8181
G1 X153.111 Y96.889 E0.8909
G1 X152.200 Y96.190 E0.9638
G1 X151.139 Y95.750 E1.0366
G1 X150.000 Y95.601 E1.1095
G1 X148.861 Y95.750 E1.1824
G1 X147.800 Y96.190 E1.2552
G1 X146.889 Y96.889 E1.3281
G1 X146.190 Y97.800 E1.4010
G1 X145.750 Y98.861 E1.4738
G1 X145.601 Y100.000 E1.5467
G1 X145.750 Y101.139 E1.6195
G1 X146.190 Y102.200 E1.6924
G1 X146.720 Y102.890 F3600
G1 X147.850 Y102.890 F3600
; gap fill
G1 X146.469 Y103.937 F4200
G92 E0
G1 X145.590 Y103.058 E0.0789 F934
G1 X145.318 Y102.703 E0.1072
G1 X144.897 Y101.685 E0.1771
G1 X145.179 Y101.968 E0.2025
G1 X144.927 Y101.359 E0.2443
G1 X144.879 Y100.988 E0.2680
G1 X144.701 Y100.810 E0.2840
G1 X144.598 Y100.028 E0.3340
G1 X144.776 Y100.206 E0.3499
G1 X144.749 Y100.000 E0.3631
G1 X144.807 Y99.558 E0.3914
G1 X144.670 Y99.422 E0.4036
G1 X144.749 Y98.822 E0.4420
G1 X144.886 Y98.959 E0.4543
G1 X144.927 Y98.641 E0.4746
G1 X145.021 Y98.415 E0.4901
G1 X144.904 Y98.298 E0.5006
G1 X145.103 Y97.818 E0.5336
G1 X145.220 Y97.935 E0.5441
G1 X145.419 Y97.455 E0.5770
G1 X145.301 Y97.338 E0.5875
G1 X145.318 Y97.297 E0.5903
G1 X145.588 Y96.946 E0.6184
G1 X145.697 Y97.055 E0.6282
G1 X145.992 Y96.671 E0.6590
G1 X145.883 Y96.562 E0.6687
G1 X146.177 Y96.177 E0.6995
G1 X146.287 Y96.287 E0.7092
G1 X146.671 Y95.992 E0.7400
G1 X146.562 Y95.883 E0.7498
G1 X146.946 Y95.588 E0.7805
G1 X147.055 Y95.697 E0.7903
G1 X147.374 Y95.452 E0.8158
G1 X147.455 Y95.419 E0.8214
G1 X147.338 Y95.301 E0.8319
G1 X147.818 Y95.103 E0.8648
G1 X147.935 Y95.220 E0.8753
G1 X148.415 Y95.021 E0.9083
G1 X148.298 Y94.904 E0.9188
G1 X148.601 Y94.778 E0.9396
G1 X148.822 Y94.749 E0.9538
G1 X148.959 Y94.886 E0.9660
G1 X149.558 Y94.807 E1.0044
G1 X149.422 Y94.670 E1.0166
G1 X150.000 Y94.594 E1.0536
G1 X150.029 Y94.598 E1.0554
G1 X150.206 Y94.776 E1.0714
G1 X150.988 Y94.879 E1.1214
G1 X150.810 Y94.701 E1.1373
G1 X151.399 Y94.778 E1.1750
G1 X151.685 Y94.897 E1.1947
G1 X151.968 Y95.180 E1.2200
G1 X152.626 Y95.452 E1.2652
G1 X153.713 Y96.287 E1.3522
G1 X154.548 Y97.374 E1.4392
G1 X154.820 Y98.032 E1.4843
G1 X155.103 Y98.315 E1.5097
G1 X154.682 Y97.297 E1.5796
G1 X154.409 Y96.942 E1.6080
G1 X153.058 Y95.591 E1.7292
G1 X155.121 Y99.012 F4200
G92 E0
G1 X155.299 Y99.190 E0.0159 F934
G1 X155.402 Y99.971 E0.0660
G1 X155.224 Y99.794 E0.0819
G1 X155.251 Y100.000 E0.0951
G1 X155.193 Y100.442 E0.1234
G1 X155.330 Y100.578 E0.1356
G1 X155.251 Y101.178 E0.1740
G1 X155.114 Y101.041 E0.1862
G1 X155.073 Y101.359 E0.2066
G1 X154.979 Y101.585 E0.2221
G1 X155.096 Y101.702 E0.2326
G1 X154.897 Y102.182 E0.2655
G1 X154.780 Y102.065 E0.2760
G1 X154.581 Y102.545 E0.3090
G1 X154.699 Y102.662 E0.3195
G1 X154.682 Y102.703 E0.3223
G1 X154.412 Y103.054 E0.3504
G1 X154.303 Y102.945 E0.3602
G1 X154.008 Y103.329 E0.3909
G1 X154.117 Y103.438 E0.4007
G1 X153.823 Y103.822 E0.4314
G1 X153.713 Y103.713 E0.4412
; solid layer
G1 X152.174 Y104.210 F4200
G92 E0
G1 X152.298 Y104.335 E0.0112 F934
G1 X151.818 Y104.534 E0.0442
G1 X151.495 Y104.210 E0.0732
G1 X150.816 Y104.210 E0.1163
G1 X151.338 Y104.732 E0.1631
G1 X151.275 Y104.759 E0.1675
G1 X150.754 Y104.827 E0.2008
G1 X150.137 Y104.210 E0.2562
G1 X149.458 Y104.210 E0.2992
G1 X150.154 Y104.906 E0.3617
G1 X150.000 Y104.927 E0.3716
G1 X149.420 Y104.850 E0.4087
G1 X148.779 Y104.210 E0.4662
G1 X148.101 Y104.210 E0.5092
G1 X148.596 Y104.705 E0.5537
G92 E0
G1 E-4.0000 F3600
; layer 2, Z = 0.600
M140 S65
M106 S127
; inner perimeter
G1 X148.631 Y105.109 F4200
G1 Z0.600 F1002
G1 E0.0000 F3600
G92 E0
G1 X147.355 Y104.581 E0.0876 F920
G1 X146.394 Y103.843 E0.1645
G1 X146.493 Y103.550 E0.1841
G1 X153.507 Y103.550 E0.6291
G1 X153.606 Y103.843 E0.6487
G1 X152.645 Y104.581 E0.7256
G1 X151.369 Y105.109 E0.8132
G1 X150.000 Y105.290 E0.9008
G1 X148.631 Y105.109 E0.9884
G1 X148.506 Y105.577 F4200
G92 E0
G1 X147.113 Y105.000 E0.0956 F920
G1 X145.917 Y104.083 E0.1912
G1 X145.000 Y102.887 E0.2869
G1 X144.423 Y101.494 E0.3825
G1 X144.226 Y100.000 E0.4781
G1 X144.423 Y98.506 E0.5737
G1 X145.000 Y97.113 E0.6694
G1 X145.917 Y95.917 E0.7650
G1 X147.113 Y95.000 E0.8606
G1 X148.506 Y94.423 E0.9562
G1 X150.000 Y94.226 E1.0519
G1 X151.494 Y94.423 E1.1475
G1 X152.887 Y95.000 E1.2431
G1 X154.083 Y95.917 E1.3387
G1 X155.000 Y97.113 E1.4343
G1 X155.577 Y98.506 E1.5300
G1 X155.774 Y100.000 E1.6256
G1 X155.577 Y101.494 E1.7212
G1 X155.000 Y102.887 E1.8168
G1 X154.083 Y104.083 E1.9125
G1 X152.887 Y105.000 E2.0081
G1 X151.494 Y105.577 E2.1037
G1 X150.000 Y105.774 E2.1993
G1 X148.506 Y105.577 E2.2950
; outer perimeter
G1 X148.380 Y106.045 F4200
G92 E0
G1 X146.871 Y105.420 E0.1036 F613
G1 X145.575 Y104.425 E0.2073
G1 X144.580 Y103.129 E0.3109
G1 X143.955 Y101.620 E0.4146
G1 X143.742 Y100.000 E0.5182
G1 X143.955 Y98.380 E0.6218
G1 X144.580 Y96.871 E0.7255
G1 X145.575 Y95.575 E0.8291
