; G-Code generated by Simplify3D(R) Version 4.0.0
; Aug 16, 2017 at 12:52:54 PM
; Settings Summary
;   processName,Process1
;   applyToModels,MotorMount
;   profileName,Belfry (modified)
;   profileVersion,2017-06-19 17:47:16
;   baseProfile,Default
;   printMaterial,PLA+
;   printQuality,Medium
;   printExtruders,
;   extruderName,Extruder 1
;   extruderToolheadNumber,0
;   extruderDiameter,0.4
;   extruderAutoWidth,1
;   extruderWidth,0.48
;   extrusionMultiplier,1
;   extruderUseRetract,1
;   extruderRetractionDistance,4
;   extruderExtraRestartDistance,0
;   extruderRetractionZLift,0
;   extruderRetractionSpeed,3600
;   extruderUseCoasting,0
;   extruderCoastingDistance,0.2
;   extruderUseWipe,1
;   extruderWipeDistance,2
;   primaryExtruder,0
;   layerHeight,0.3
;   topSolidLayers,3
;   bottomSolidLayers,3
;   perimeterOutlines,3
;   printPerimetersInsideOut,1
;   startPointOption,2
;   startPointOriginX,0
;   startPointOriginY,0
;   sequentialIslands,0
;   spiralVaseMode,0
;   firstLayerHeightPercentage,100
;   firstLayerWidthPercentage,100
;   firstLayerUnderspeed,0.5
;   useRaft,0
;   raftExtruder,0
;   raftTopLayers,3
;   raftBaseLayers,2
;   raftOffset,3
;   raftSeparationDistance,0.14
;   raftTopInfill,100
;   aboveRaftSpeedMultiplier,0.3
;   useSkirt,1
;   skirtExtruder,0
;   skirtLayers,1
;   skirtOutlines,1
;   skirtOffset,4
;   usePrimePillar,0
;   primePillarExtruder,999
;   primePillarWidth,12
;   primePillarLocation,7
;   primePillarSpeedMultiplier,1
;   useOozeShield,0
;   oozeShieldExtruder,999
;   oozeShieldOffset,2
;   oozeShieldOutlines,1
;   oozeShieldSidewallShape,1
;   oozeShieldSidewallAngle,30
;   oozeShieldSpeedMultiplier,1
;   infillExtruder,0
;   internalInfillPattern,Rectilinear
;   externalInfillPattern,Rectilinear
;   infillPercentage,25
;   outlineOverlapPercentage,25
;   infillExtrusionWidthPercentage,100
;   minInfillLength,5
;   infillLayerInterval,1
;   internalInfillAngles,45,-45
;   overlapInternalInfillAngles,0
;   externalInfillAngles,45,-45
;   generateSupport,0
;   supportExtruder,0
;   supportInfillPercentage,30
;   supportExtraInflation,0
;   supportBaseLayers,0
;   denseSupportExtruder,0
;   denseSupportLayers,0
;   denseSupportInfillPercentage,70
;   supportLayerInterval,1
;   supportHorizontalPartOffset,0.3
;   supportUpperSeparationLayers,1
;   supportLowerSeparationLayers,1
;   supportType,0
;   supportGridSpacing,4
;   maxOverhangAngle,45
;   supportAngles,0
;   temperatureName,Extruder 1,Heated Bed
;   temperatureNumber,0,0
;   temperatureSetpointCount,1,3
;   temperatureSetpointLayers,1,1,2,3
;   temperatureSetpointTemperatures,225,70,65,60
;   temperatureStabilizeAtStartup,1,1
;   temperatureHeatedBed,0,1
;   temperatureRelayBetweenLayers,0,0
;   temperatureRelayBetweenLoops,0,0
;   fanLayers,1,2,3
;   fanSpeeds,0,50,100
;   blipFanToFullPower,0
;   adjustSpeedForCooling,1
;   minSpeedLayerTime,15
;   minCoolingSpeedSlowdown,20
;   increaseFanForCooling,0
;   minFanLayerTime,45
;   maxCoolingFanSpeed,100
;   increaseFanForBridging,0
;   bridgingFanSpeed,100
;   use5D,1
;   relativeEdistances,0
;   allowEaxisZeroing,1
;   independentExtruderAxes,0
;   includeM10123,0
;   stickySupport,1
;   applyToolheadOffsets,0
;   gcodeXoffset,0
;   gcodeYoffset,0
;   gcodeZoffset,0
;   overrideMachineDefinition,1
;   machineTypeOverride,0
;   strokeXoverride,300
;   strokeYoverride,200
;   strokeZoverride,350
;   originOffsetXoverride,0
;   originOffsetYoverride,0
;   originOffsetZoverride,0
;   homeXdirOverride,-1
;   homeYdirOverride,-1
;   homeZdirOverride,-1
;   flipXoverride,1
;   flipYoverride,-1
;   flipZoverride,1
;   toolheadOffsets,0,0|0,0|0,0|0,0|0,0|0,0
;   overrideFirmwareConfiguration,1
;   firmwareTypeOverride,RepRap (Marlin/Repetier/Sprinter)
;   GPXconfigOverride,r2
;   baudRateOverride,115200
;   overridePrinterModels,0
;   printerModelsOverride
;   startingGcode,G28 ; home all axes
;   layerChangeGcode,
;   retractionGcode,
;   toolChangeGcode,
;   endingGcode,G91 ;relative positioning,G1 Z+0.5 ;move Z up a bit,G28 X0 Y0 ;move X/Y to min endstops,M104 S0 ; turn off extruder,M140 S0 ; turn off bed,M84 ; disable motors
;   exportFileFormat,gcode
;   celebration,0
;   celebrationSong,Random Song
;   postProcessing,
;   defaultSpeed,3600
;   outlineUnderspeed,0.5
;   solidInfillUnderspeed,0.8
;   supportUnderspeed,0.8
;   rapidXYspeed,4200
;   rapidZspeed,1002
;   minBridgingArea,50
;   bridgingExtraInflation,0
;   bridgingExtrusionMultiplier,1
;   bridgingSpeedMultiplier,1
;   useFixedBridgingAngle,0
;   fixedBridgingAngle,0
;   applyBridgingToPerimeters,0
;   filamentDiameters,1.7|1.7|1.7|1.7|1.7|1.7
;   filamentPricesPerKg,30|30|30|30|30|30
;   filamentDensities,1.25|1.25|1.25|1.25|1.25|1.25
;   useMinPrintHeight,0
;   minPrintHeight,0
;   useMaxPrintHeight,0
;   maxPrintHeight,0
;   useDiaphragm,0
;   diaphragmLayerInterval,20
;   robustSlicing,1
;   mergeAllIntoSolid,0
;   onlyRetractWhenCrossingOutline,1
;   retractBetweenLayers,1
;   useRetractionMinTravel,0
;   retractionMinTravel,3
;   retractWhileWiping,0
;   onlyWipeOutlines,1
;   avoidCrossingOutline,0
;   maxMovementDetourFactor,3
;   toolChangeRetractionDistance,12
;   toolChangeExtraRestartDistance,-0.5
;   toolChangeRetractionSpeed,600
;   externalThinWallType,0
;   internalThinWallType,2
;   thinWallAllowedOverlapPercentage,10
;   singleExtrusionMinLength,1
;   singleExtrusionMinPrintingWidthPercentage,50
;   singleExtrusionMaxPrintingWidthPercentage,200
;   singleExtrusionEndpointExtension,0.2
;   horizontalSizeCompensation,0
G90
M82
M106 S0
M140 S70
M190 S70
M104 S225 T0
M109 S225 T0
G28 ; home all axes
G92 E0
G1 E-4.0000 F3600
G1 Z0.300 F1002
; process Process1
; layer 1, Z = 0.300
T0
; tool H0.300 W0.480
; skirt
G1 X85.445 Y71.809 F4200
G1 E0.0000 F1080
G92 E0
G1 X86.072 Y70.296 E0.1040 F1800
G1 X86.099 Y70.256 E0.1070
G1 X90.257 Y66.098 E0.4801
G1 X90.297 Y66.071 E0.4831
G1 X91.811 Y65.444 E0.5870
G1 X91.857 Y65.435 E0.5900
G1 X113.354 Y65.435 E1.9538
G1 X115.013 Y63.665 E2.1077
G1 X115.015 Y63.662 E2.1080
G1 X115.111 Y63.567 E2.1165
G1 X115.114 Y63.564 E2.1168
G1 X117.467 Y61.361 E2.3213
G1 X117.470 Y61.358 E2.3215
G1 X117.571 Y61.270 E2.3301
G1 X117.574 Y61.267 E2.3303
G1 X120.067 Y59.223 E2.5349
G1 X120.070 Y59.220 E2.5351
G1 X120.177 Y59.138 E2.5437
G1 X120.180 Y59.136 E2.5439
G1 X122.801 Y57.259 E2.7484
G1 X122.804 Y57.257 E2.7487
G1 X122.916 Y57.182 E2.7572
G1 X122.920 Y57.180 E2.7575
G1 X125.658 Y55.478 E2.9620
G1 X125.661 Y55.476 E2.9622
G1 X125.778 Y55.409 E2.9708
G1 X125.781 Y55.407 E2.9710
G1 X128.625 Y53.888 E3.1755
G1 X128.628 Y53.887 E3.1758
G1 X128.749 Y53.827 E3.1843
G1 X128.753 Y53.825 E3.1846
G1 X131.689 Y52.496 E3.3891
G1 X131.693 Y52.494 E3.3894
G1 X131.818 Y52.443 E3.3979
G1 X131.821 Y52.441 E3.3982
G1 X134.839 Y51.307 E3.6027
G1 X134.842 Y51.305 E3.6029
G1 X134.970 Y51.262 E3.6115
G1 X134.974 Y51.261 E3.6117
G1 X138.059 Y50.326 E3.8162
G1 X138.063 Y50.325 E3.8165
G1 X138.193 Y50.290 E3.8250
G1 X138.197 Y50.289 E3.8253
G1 X141.336 Y49.558 E4.0298
G1 X141.340 Y49.557 E4.0300
G1 X141.472 Y49.531 E4.0386
G1 X141.476 Y49.530 E4.0388
G1 X144.657 Y49.006 E4.2434
G1 X144.661 Y49.006 E4.2436
G1 X144.794 Y48.988 E4.2522
G1 X144.798 Y48.988 E4.2524
G1 X148.007 Y48.673 E4.4569
G1 X148.010 Y48.672 E4.4572
G1 X148.145 Y48.664 E4.4657
G1 X148.149 Y48.663 E4.4660
G1 X151.371 Y48.559 E4.6705
G1 X151.375 Y48.559 E4.6707
G1 X151.510 Y48.559 E4.6793
G1 X151.514 Y48.559 E4.6795
G1 X154.735 Y48.665 E4.8840
G1 X154.739 Y48.666 E4.8843
G1 X154.874 Y48.674 E4.8929
G1 X154.878 Y48.675 E4.8931
G1 X158.086 Y48.992 E5.0976
G1 X158.090 Y48.992 E5.0979
G1 X158.223 Y49.010 E5.1064
G1 X158.227 Y49.010 E5.1067
G1 X161.408 Y49.537 E5.3112
G1 X161.411 Y49.537 E5.3114
G1 X161.544 Y49.564 E5.3200
G1 X161.548 Y49.564 E5.3202
G1 X164.687 Y50.297 E5.5247
G1 X164.690 Y50.298 E5.5250
G1 X164.821 Y50.333 E5.5335
G1 X164.824 Y50.334 E5.5338
G1 X167.909 Y51.271 E5.7383
G1 X167.913 Y51.272 E5.7385
G1 X168.040 Y51.316 E5.7471
G1 X168.044 Y51.317 E5.7474
G1 X171.061 Y52.453 E5.9519
G1 X171.064 Y52.455 E5.9521
G1 X171.189 Y52.507 E5.9607
G1 X171.193 Y52.508 E5.9609
G1 X174.128 Y53.839 E6.1654
G1 X174.132 Y53.841 E6.1657
G1 X174.253 Y53.901 E6.1742
G1 X174.256 Y53.903 E6.1745
G1 X177.099 Y55.423 E6.3790
G1 X177.102 Y55.425 E6.3792
G1 X177.219 Y55.492 E6.3878
G1 X177.222 Y55.494 E6.3880
G1 X179.959 Y57.198 E6.5926
G1 X179.963 Y57.200 E6.5928
G1 X180.075 Y57.275 E6.6014
G1 X180.078 Y57.277 E6.6016
G1 X182.698 Y59.155 E6.8061
G1 X182.701 Y59.158 E6.8064
G1 X182.808 Y59.240 E6.8149
G1 X182.811 Y59.242 E6.8152
G1 X185.302 Y61.288 E7.0197
G1 X185.305 Y61.290 E7.0199
G1 X185.406 Y61.379 E7.0284
G1 X185.409 Y61.382 E7.0287
G1 X187.750 Y63.575 E7.2322
G1 X187.753 Y63.578 E7.2325
G1 X187.849 Y63.673 E7.2410
G1 X187.851 Y63.676 E7.2413
G1 X190.055 Y66.029 E7.4458
G1 X190.058 Y66.031 E7.4460
G1 X190.146 Y66.133 E7.4546
G1 X190.149 Y66.136 E7.4548
G1 X192.194 Y68.628 E7.6594
G1 X192.197 Y68.631 E7.6596
G1 X192.279 Y68.738 E7.6682
G1 X192.281 Y68.741 E7.6684
G1 X194.159 Y71.361 E7.8729
G1 X194.161 Y71.365 E7.8732
G1 X194.236 Y71.477 E7.8817
G1 X194.238 Y71.480 E7.8820
G1 X195.940 Y74.217 E8.0865
G1 X195.942 Y74.221 E8.0867
G1 X195.978 Y74.283 E8.0913
G1 X213.620 Y87.156 E9.4768
G1 X213.657 Y87.200 E9.4804
G1 X214.551 Y88.958 E9.6056
G1 X214.564 Y89.014 E9.6092
G1 X214.564 Y96.705 E10.0971
G1 X214.527 Y96.793 E10.1032
G1 X212.117 Y99.203 E10.3195
G1 X212.028 Y99.240 E10.3255
G1 X193.736 Y99.240 E11.4860
G1 X193.653 Y99.208 E11.4917
G1 X191.300 Y97.075 E11.6931
G1 X191.260 Y96.996 E11.6988
G1 X191.042 Y94.785 E11.8397
G1 X190.616 Y92.205 E12.0056
G1 X190.022 Y89.658 E12.1715
G1 X189.263 Y87.156 E12.3374
G1 X188.342 Y84.709 E12.5033
G1 X187.263 Y82.327 E12.6692
G1 X186.031 Y80.021 E12.8350
G1 X184.650 Y77.800 E13.0010
G1 X183.127 Y75.675 E13.1668
G1 X181.469 Y73.655 E13.3327
G1 X179.671 Y71.737 E13.4994
G1 X177.763 Y69.950 E13.6653
G1 X175.741 Y68.292 E13.8311
G1 X173.615 Y66.770 E13.9970
G1 X171.394 Y65.390 E14.1629
G1 X169.088 Y64.158 E14.3288
G1 X166.706 Y63.080 E14.4947
G1 X164.258 Y62.159 E14.6606
G1 X161.756 Y61.401 E14.8264
G1 X159.209 Y60.808 E14.9923
G1 X156.629 Y60.383 E15.1582
G1 X154.027 Y60.127 E15.3241
G1 X151.414 Y60.043 E15.4900
G1 X148.800 Y60.129 E15.6559
G1 X146.198 Y60.386 E15.8218
G1 X143.619 Y60.813 E15.9876
G1 X141.073 Y61.407 E16.1535
G1 X138.571 Y62.167 E16.3194
G1 X136.124 Y63.089 E16.4853
G1 X133.742 Y64.169 E16.6512
G1 X131.437 Y65.402 E16.8170
G1 X129.217 Y66.784 E16.9829
G1 X127.092 Y68.307 E17.1488
G1 X125.071 Y69.967 E17.3147
G1 X123.172 Y71.746 E17.4798
G1 X121.384 Y73.654 E17.6457
G1 X119.726 Y75.675 E17.8116
G1 X118.203 Y77.801 E17.9774
G1 X116.822 Y80.021 E18.1433
G1 X115.589 Y82.327 E18.3092
G1 X114.510 Y84.709 E18.4751
G1 X113.589 Y87.156 E18.6410
G1 X112.830 Y89.658 E18.8069
G1 X112.236 Y92.205 E18.9728
G1 X111.810 Y94.784 E19.1386
G1 X111.554 Y97.387 E19.3045
G1 X111.468 Y100.000 E19.4704
G1 X111.554 Y102.613 E19.6363
G1 X111.810 Y105.216 E19.8022
G1 X112.236 Y107.795 E19.9680
G1 X112.830 Y110.342 E20.1339
G1 X113.589 Y112.844 E20.2998
G1 X114.510 Y115.291 E20.4657
G1 X115.589 Y117.673 E20.6316
G1 X116.822 Y119.979 E20.7975
G1 X118.203 Y122.199 E20.9634
G1 X119.726 Y124.325 E21.1292
G1 X121.384 Y126.345 E21.2951
G1 X123.181 Y128.263 E21.4618
G1 X125.090 Y130.050 E21.6277
G1 X127.112 Y131.708 E21.7936
G1 X129.238 Y133.230 E21.9595
G1 X131.458 Y134.610 E22.1253
G1 X133.765 Y135.842 E22.2912
G1 X136.147 Y136.921 E22.4571
G1 X138.594 Y137.841 E22.6230
G1 X141.096 Y138.599 E22.7889
G1 X143.643 Y139.192 E22.9548
G1 X146.223 Y139.617 E23.1206
G1 X148.825 Y139.873 E23.2865
G1 X151.439 Y139.957 E23.4524
G1 X154.052 Y139.871 E23.6183
G1 X156.654 Y139.614 E23.7842
G1 X159.234 Y139.187 E23.9501
G1 X161.780 Y138.593 E24.1159
G1 X164.282 Y137.833 E24.2818
G1 X166.729 Y136.911 E24.4477
G1 X169.110 Y135.831 E24.6136
G1 X171.416 Y134.598 E24.7795
G1 X173.636 Y133.216 E24.9454
G1 X175.760 Y131.693 E25.1112
G1 X177.782 Y130.033 E25.2772
G1 X179.680 Y128.254 E25.4422
G1 X181.468 Y126.346 E25.6081
G1 X183.127 Y124.325 E25.7740
G1 X184.650 Y122.199 E25.9399
G1 X186.031 Y119.979 E26.1058
G1 X187.263 Y117.673 E26.2716
G1 X188.342 Y115.291 E26.4375
G1 X189.263 Y112.844 E26.6034
G1 X190.022 Y110.342 E26.7693
G1 X190.616 Y107.795 E26.9352
G1 X191.042 Y105.215 E27.1011
G1 X191.260 Y103.004 E27.2420
G1 X191.300 Y102.925 E27.2477
G1 X193.653 Y100.792 E27.4491
G1 X193.736 Y100.760 E27.4548
G1 X212.028 Y100.760 E28.6153
G1 X212.117 Y100.797 E28.6214
G1 X214.527 Y103.207 E28.8376
G1 X214.564 Y103.295 E28.8437
G1 X214.564 Y110.986 E29.3316
G1 X214.551 Y111.042 E29.3352
G1 X213.657 Y112.800 E29.4604
G1 X213.620 Y112.844 E29.4640
G1 X195.978 Y125.717 E30.8495
G1 X195.942 Y125.779 E30.8541
G1 X195.940 Y125.783 E30.8543
G1 X194.238 Y128.520 E31.0588
G1 X194.236 Y128.523 E31.0591
G1 X194.161 Y128.635 E31.0676
G1 X194.159 Y128.639 E31.0679
G1 X192.281 Y131.259 E31.2724
G1 X192.279 Y131.262 E31.2726
G1 X192.197 Y131.369 E31.2812
G1 X192.194 Y131.372 E31.2814
G1 X190.149 Y133.864 E31.4860
G1 X190.146 Y133.867 E31.4862
G1 X190.057 Y133.969 E31.4948
G1 X190.054 Y133.972 E31.4951
G1 X187.840 Y136.335 E31.7005
G1 X187.837 Y136.338 E31.7008
G1 X187.742 Y136.433 E31.7093
G1 X187.739 Y136.436 E31.7096
G1 X185.385 Y138.639 E31.9141
G1 X185.382 Y138.642 E31.9144
G1 X185.281 Y138.730 E31.9229
G1 X185.278 Y138.733 E31.9232
G1 X182.785 Y140.777 E32.1277
G1 X182.782 Y140.780 E32.1279
G1 X182.675 Y140.862 E32.1365
G1 X182.672 Y140.864 E32.1367
G1 X180.051 Y142.741 E32.3412
G1 X180.048 Y142.743 E32.3415
G1 X179.936 Y142.818 E32.3500
G1 X179.933 Y142.820 E32.3503
G1 X177.195 Y144.522 E32.5548
G1 X177.191 Y144.524 E32.5550
G1 X177.074 Y144.591 E32.5636
G1 X177.071 Y144.593 E32.5638
G1 X174.228 Y146.112 E32.7684
G1 X174.224 Y146.113 E32.7686
G1 X174.103 Y146.173 E32.7772
G1 X174.100 Y146.175 E32.7774
G1 X171.163 Y147.504 E32.9819
G1 X171.159 Y147.506 E32.9822
G1 X171.035 Y147.557 E32.9907
G1 X171.031 Y147.559 E32.9910
G1 X168.014 Y148.693 E33.1955
G1 X168.010 Y148.695 E33.1957
G1 X167.882 Y148.738 E33.2043
G1 X167.879 Y148.739 E33.2045
G1 X164.794 Y149.674 E33.4090
G1 X164.790 Y149.675 E33.4093
G1 X164.660 Y149.710 E33.4178
G1 X164.656 Y149.711 E33.4181
G1 X161.516 Y150.442 E33.6226
G1 X161.512 Y150.443 E33.6229
G1 X161.380 Y150.469 E33.6314
G1 X161.376 Y150.470 E33.6317
G1 X158.195 Y150.994 E33.8362
G1 X158.192 Y150.994 E33.8364
G1 X158.058 Y151.012 E33.8450
G1 X158.054 Y151.012 E33.8452
G1 X154.846 Y151.327 E34.0497
G1 X154.842 Y151.328 E34.0500
G1 X154.707 Y151.336 E34.0585
G1 X154.703 Y151.337 E34.0588
G1 X151.481 Y151.441 E34.2633
G1 X151.478 Y151.441 E34.2635
G1 X151.343 Y151.441 E34.2721
G1 X151.339 Y151.441 E34.2723
G1 X148.117 Y151.335 E34.4769
G1 X148.113 Y151.334 E34.4771
G1 X147.979 Y151.325 E34.4857
G1 X147.975 Y151.325 E34.4859
G1 X144.767 Y151.008 E34.6904
G1 X144.763 Y151.008 E34.6907
G1 X144.629 Y150.990 E34.6992
G1 X144.625 Y150.990 E34.6995
G1 X141.445 Y150.463 E34.9040
G1 X141.441 Y150.463 E34.9042
G1 X141.309 Y150.436 E34.9128
G1 X141.305 Y150.436 E34.9130
G1 X138.166 Y149.703 E35.1175
G1 X138.162 Y149.702 E35.1178
G1 X138.032 Y149.667 E35.1263
G1 X138.028 Y149.666 E35.1266
G1 X134.943 Y148.729 E35.3311
G1 X134.940 Y148.728 E35.3314
G1 X134.812 Y148.684 E35.3399
G1 X134.808 Y148.683 E35.3402
G1 X131.792 Y147.547 E35.5447
G1 X131.788 Y147.545 E35.5449
G1 X131.663 Y147.493 E35.5535
G1 X131.660 Y147.492 E35.5537
G1 X128.724 Y146.161 E35.7582
G1 X128.720 Y146.159 E35.7585
G1 X128.600 Y146.099 E35.7670
G1 X128.596 Y146.097 E35.7673
G1 X125.754 Y144.577 E35.9718
G1 X125.750 Y144.575 E35.9720
G1 X125.633 Y144.508 E35.9806
G1 X125.630 Y144.506 E35.9808
G1 X122.893 Y142.802 E36.1854
G1 X122.890 Y142.800 E36.1856
G1 X122.778 Y142.725 E36.1942
G1 X122.774 Y142.723 E36.1944
G1 X120.155 Y140.845 E36.3989
G1 X120.152 Y140.842 E36.3992
G1 X120.045 Y140.760 E36.4077
G1 X120.042 Y140.758 E36.4080
G1 X117.551 Y138.712 E36.6125
G1 X117.548 Y138.710 E36.6127
G1 X117.447 Y138.621 E36.6212
G1 X117.444 Y138.618 E36.6215
